X: 29017
T: Nearby, Long Ago
R: barndance
M: 4/4
K: Dmajor
A6 FE/D/|CD G4 GF|FE/D/ CD B2 A2|c2 d2 {A}G2 eA|
f4 a2 c2|d6 G2|FE/D/ CD B2 A2|1 A6 FG:|2 A6 cd||
e2 c2 (3cBA cd|e2 f>A G2 cd|e2 f2 g(3a/g/f/ ga|e4ed cd|
e2 c2 (3cBA cd|e2 f>A G3 A|FE/D/ CD B2 A>F|E8||

